resources/icons/20px/key-delete.svg

<svg xmlns="http://www.w3.org/2000/svg" viewBox="0 0 20 20">
  <path d="m19.71 9.29-6-6A1 1 0 0 0 13 3H1c-.55 0-1 .45-1 1v12c0 .55.45 1 1 1h12c.28 0 .53-.11.71-.29l6-6c.18-.18.29-.43.29-.71s-.11-.53-.29-.71m-9 3a1.003 1.003 0 0 1-1.42 1.42L7 11.41 4.71 13.7c-.18.19-.43.3-.71.3a1.003 1.003 0 0 1-.71-1.71L5.59 10l-2.3-2.29a1.003 1.003 0 0 1 1.42-1.42L7 8.59 9.29 6.3c.18-.19.43-.3.71-.3a1.003 1.003 0 0 1 .71 1.71L8.41 10z"/>
</svg>

<?xml version="1.0" encoding="utf-8"?>
<!-- Generator: Adobe Illustrator 18.0.0, SVG Export Plug-In . SVG Version: 6.00 Build 0)  -->
<svg version="1.1" id="Layer_1" xmlns="http://www.w3.org/2000/svg" xmlns:xlink="http://www.w3.org/1999/xlink" x="0px" y="0px"
	 viewBox="0 0 20 20" enable-background="new 0 0 20 20" xml:space="preserve">
<g id="delete_6_">
	<g>
		<path fill-rule="evenodd" clip-rule="evenodd" d="M19.71,9.29l-6-6C13.53,3.11,13.28,3,13,3H1C0.45,3,0,3.45,0,4v12
			c0,0.55,0.45,1,1,1h12c0.28,0,0.53-0.11,0.71-0.29l6-6C19.89,10.53,20,10.28,20,10C20,9.72,19.89,9.47,19.71,9.29z M10.71,12.29
			C10.89,12.47,11,12.72,11,13c0,0.55-0.45,1-1,1c-0.28,0-0.53-0.11-0.71-0.29L7,11.41l-2.29,2.29C4.53,13.89,4.28,14,4,14
			c-0.55,0-1-0.45-1-1c0-0.28,0.11-0.53,0.29-0.71L5.59,10L3.29,7.71C3.11,7.53,3,7.28,3,7c0-0.55,0.45-1,1-1
			c0.28,0,0.53,0.11,0.71,0.29L7,8.59l2.29-2.29C9.47,6.11,9.72,6,10,6c0.55,0,1,0.45,1,1c0,0.28-0.11,0.53-0.29,0.71L8.41,10
			L10.71,12.29z"/>
	</g>
</g>
</svg>
